img/svg/logo_header.svg

<svg width="652" height="232" viewBox="0 0 652 232" fill="none" xmlns="http://www.w3.org/2000/svg">
<rect x="156.5" y="2.5" width="288" height="26" fill="#FF3643" stroke="white"/>
<path d="M354 28.5091V2H606.074L650 29L354 28.5091Z" fill="#FF3643" stroke="white"/>
<path d="M184 29L156 2V29H184Z" fill="#95171F" stroke="white"/>
<rect x="420.5" y="29.5" width="229" height="173" fill="#D8222E" stroke="white"/>
<path d="M38 65L2 29H452.5L495 65H38Z" fill="#0068C2" stroke="white"/>
<path d="M38 65L2 29V191L38 230V65Z" fill="#003869" stroke="white"/>
<rect x="38.5" y="65.5" width="457" height="164" fill="#034D8E" stroke="white"/>
<g filter="url(#filter0_di_39_34)">
<path d="M109.888 195.28C102.891 195.28 96.448 194.171 90.56 191.952C84.7573 189.648 79.68 186.448 75.328 182.352C70.976 178.171 67.6053 173.264 65.216 167.632C62.8267 162 61.632 155.856 61.632 149.2C61.632 142.544 62.8267 136.4 65.216 130.768C67.6053 125.136 70.976 120.272 75.328 116.176C79.7653 111.995 84.928 108.795 90.816 106.576C96.704 104.272 103.147 103.12 110.144 103.12C117.739 103.12 124.565 104.357 130.624 106.832C136.768 109.307 141.931 112.933 146.112 117.712L135.616 127.952C132.117 124.453 128.32 121.893 124.224 120.272C120.213 118.565 115.776 117.712 110.912 117.712C106.219 117.712 101.867 118.48 97.856 120.016C93.8453 121.552 90.3893 123.728 87.488 126.544C84.5867 129.36 82.3253 132.688 80.704 136.528C79.168 140.368 78.4 144.592 78.4 149.2C78.4 153.723 79.168 157.904 80.704 161.744C82.3253 165.584 84.5867 168.955 87.488 171.856C90.3893 174.672 93.8027 176.848 97.728 178.384C101.653 179.92 106.005 180.688 110.784 180.688C115.221 180.688 119.488 180.005 123.584 178.64C127.765 177.189 131.733 174.8 135.488 171.472L144.96 183.888C140.267 187.643 134.805 190.501 128.576 192.464C122.432 194.341 116.203 195.28 109.888 195.28ZM129.216 181.712V148.176H144.96V183.888L129.216 181.712ZM208.891 195.28C201.894 195.28 195.451 194.128 189.563 191.824C183.675 189.52 178.555 186.32 174.203 182.224C169.851 178.043 166.48 173.179 164.091 167.632C161.702 162 160.507 155.856 160.507 149.2C160.507 142.544 161.702 136.443 164.091 130.896C166.48 125.264 169.851 120.4 174.203 116.304C178.555 112.123 183.675 108.88 189.563 106.576C195.451 104.272 201.851 103.12 208.763 103.12C215.76 103.12 222.16 104.272 227.963 106.576C233.851 108.88 238.971 112.123 243.323 116.304C247.675 120.4 251.046 125.264 253.435 130.896C255.824 136.443 257.019 142.544 257.019 149.2C257.019 155.856 255.824 162 253.435 167.632C251.046 173.264 247.675 178.128 243.323 182.224C238.971 186.32 233.851 189.52 227.963 191.824C222.16 194.128 215.803 195.28 208.891 195.28ZM208.763 180.688C213.286 180.688 217.467 179.92 221.307 178.384C225.147 176.848 228.475 174.672 231.291 171.856C234.107 168.955 236.283 165.627 237.819 161.872C239.44 158.032 240.251 153.808 240.251 149.2C240.251 144.592 239.44 140.411 237.819 136.656C236.283 132.816 234.107 129.488 231.291 126.672C228.475 123.771 225.147 121.552 221.307 120.016C217.467 118.48 213.286 117.712 208.763 117.712C204.24 117.712 200.059 118.48 196.219 120.016C192.464 121.552 189.136 123.771 186.235 126.672C183.419 129.488 181.2 132.816 179.579 136.656C178.043 140.411 177.275 144.592 177.275 149.2C177.275 153.723 178.043 157.904 179.579 161.744C181.2 165.584 183.419 168.955 186.235 171.856C189.051 174.672 192.379 176.848 196.219 178.384C200.059 179.92 204.24 180.688 208.763 180.688ZM316.641 195.28C309.644 195.28 303.201 194.128 297.313 191.824C291.425 189.52 286.305 186.32 281.953 182.224C277.601 178.043 274.23 173.179 271.841 167.632C269.452 162 268.257 155.856 268.257 149.2C268.257 142.544 269.452 136.443 271.841 130.896C274.23 125.264 277.601 120.4 281.953 116.304C286.305 112.123 291.425 108.88 297.313 106.576C303.201 104.272 309.601 103.12 316.513 103.12C323.51 103.12 329.91 104.272 335.713 106.576C341.601 108.88 346.721 112.123 351.073 116.304C355.425 120.4 358.796 125.264 361.185 130.896C363.574 136.443 364.769 142.544 364.769 149.2C364.769 155.856 363.574 162 361.185 167.632C358.796 173.264 355.425 178.128 351.073 182.224C346.721 186.32 341.601 189.52 335.713 191.824C329.91 194.128 323.553 195.28 316.641 195.28ZM316.513 180.688C321.036 180.688 325.217 179.92 329.057 178.384C332.897 176.848 336.225 174.672 339.041 171.856C341.857 168.955 344.033 165.627 345.569 161.872C347.19 158.032 348.001 153.808 348.001 149.2C348.001 144.592 347.19 140.411 345.569 136.656C344.033 132.816 341.857 129.488 339.041 126.672C336.225 123.771 332.897 121.552 329.057 120.016C325.217 118.48 321.036 117.712 316.513 117.712C311.99 117.712 307.809 118.48 303.969 120.016C300.214 121.552 296.886 123.771 293.985 126.672C291.169 129.488 288.95 132.816 287.329 136.656C285.793 140.411 285.025 144.592 285.025 149.2C285.025 153.723 285.793 157.904 287.329 161.744C288.95 165.584 291.169 168.955 293.985 171.856C296.801 174.672 300.129 176.848 303.969 178.384C307.809 179.92 311.99 180.688 316.513 180.688ZM382.407 194V104.4H421.575C431.303 104.4 439.836 106.277 447.175 110.032C454.514 113.787 460.231 118.992 464.327 125.648C468.423 132.304 470.471 140.155 470.471 149.2C470.471 158.16 468.423 166.011 464.327 172.752C460.231 179.408 454.514 184.613 447.175 188.368C439.836 192.123 431.303 194 421.575 194H382.407ZM399.047 179.92H420.807C427.548 179.92 433.351 178.64 438.215 176.08C443.164 173.52 446.962 169.936 449.607 165.328C452.338 160.72 453.703 155.344 453.703 149.2C453.703 142.971 452.338 137.595 449.607 133.072C446.962 128.464 443.164 124.88 438.215 122.32C433.351 119.76 427.548 118.48 420.807 118.48H399.047V179.92Z" fill="white"/>
</g>
<g filter="url(#filter1_i_39_34)">
<path d="M514.032 162V72.4H530.672V147.92H577.52V162H514.032Z" fill="white"/>
</g>
<g filter="url(#filter2_i_39_34)">
<path d="M579.392 109.648H623.936V123.344H579.392V109.648ZM580.672 148.048H631.232V162H564.032V72.4H629.44V86.352H580.672V148.048Z" fill="white"/>
</g>
<rect x="564" y="72" width="17" height="90" fill="#D8222E"/>
<rect x="352" y="3" width="7" height="25" fill="#FF3643"/>
<defs>
<filter id="filter0_di_39_34" x="61.6318" y="103.12" width="417.839" height="100.16" filterUnits="userSpaceOnUse" color-interpolation-filters="sRGB">
<feFlood flood-opacity="0" result="BackgroundImageFix"/>
<feColorMatrix in="SourceAlpha" type="matrix" values="0 0 0 0 0 0 0 0 0 0 0 0 0 0 0 0 0 0 127 0" result="hardAlpha"/>
<feOffset dx="5" dy="4"/>
<feGaussianBlur stdDeviation="2"/>
<feComposite in2="hardAlpha" operator="out"/>
<feColorMatrix type="matrix" values="0 0 0 0 0 0 0 0 0 0 0 0 0 0 0 0 0 0 0.25 0"/>
<feBlend mode="normal" in2="BackgroundImageFix" result="effect1_dropShadow_39_34"/>
<feBlend mode="normal" in="SourceGraphic" in2="effect1_dropShadow_39_34" result="shape"/>
<feColorMatrix in="SourceAlpha" type="matrix" values="0 0 0 0 0 0 0 0 0 0 0 0 0 0 0 0 0 0 127 0" result="hardAlpha"/>
<feOffset dx="5" dy="3"/>
<feGaussianBlur stdDeviation="2"/>
<feComposite in2="hardAlpha" operator="arithmetic" k2="-1" k3="1"/>
<feColorMatrix type="matrix" values="0 0 0 0 0 0 0 0 0 0 0 0 0 0 0 0 0 0 0.25 0"/>
<feBlend mode="normal" in2="shape" result="effect2_innerShadow_39_34"/>
</filter>
<filter id="filter1_i_39_34" x="514.032" y="72.4" width="67.4873" height="92.6" filterUnits="userSpaceOnUse" color-interpolation-filters="sRGB">
<feFlood flood-opacity="0" result="BackgroundImageFix"/>
<feBlend mode="normal" in="SourceGraphic" in2="BackgroundImageFix" result="shape"/>
<feColorMatrix in="SourceAlpha" type="matrix" values="0 0 0 0 0 0 0 0 0 0 0 0 0 0 0 0 0 0 127 0" result="hardAlpha"/>
<feOffset dx="5" dy="3"/>
<feGaussianBlur stdDeviation="2"/>
<feComposite in2="hardAlpha" operator="arithmetic" k2="-1" k3="1"/>
<feColorMatrix type="matrix" values="0 0 0 0 0 0 0 0 0 0 0 0 0 0 0 0 0 0 0.25 0"/>
<feBlend mode="normal" in2="shape" result="effect1_innerShadow_39_34"/>
</filter>
<filter id="filter2_i_39_34" x="564.032" y="72.4" width="71.2002" height="92.6" filterUnits="userSpaceOnUse" color-interpolation-filters="sRGB">
<feFlood flood-opacity="0" result="BackgroundImageFix"/>
<feBlend mode="normal" in="SourceGraphic" in2="BackgroundImageFix" result="shape"/>
<feColorMatrix in="SourceAlpha" type="matrix" values="0 0 0 0 0 0 0 0 0 0 0 0 0 0 0 0 0 0 127 0" result="hardAlpha"/>
<feOffset dx="5" dy="3"/>
<feGaussianBlur stdDeviation="2"/>
<feComposite in2="hardAlpha" operator="arithmetic" k2="-1" k3="1"/>
<feColorMatrix type="matrix" values="0 0 0 0 0 0 0 0 0 0 0 0 0 0 0 0 0 0 0.25 0"/>
<feBlend mode="normal" in2="shape" result="effect1_innerShadow_39_34"/>
</filter>
</defs>
</svg>

<?xml version="1.0" encoding="utf-8"?>
<!-- Generator: Adobe Illustrator 24.1.1, SVG Export Plug-In . SVG Version: 6.00 Build 0)  -->
<svg version="1.1" id="Слой_1" xmlns="http://www.w3.org/2000/svg" xmlns:xlink="http://www.w3.org/1999/xlink" x="0px" y="0px"
	 viewBox="0 0 652 232" style="enable-background:new 0 0 652 232;" xml:space="preserve">
<style type="text/css">
	.st0{fill:#FF3643;stroke:#FFFFFF;}
	.st1{fill:#95171F;stroke:#FFFFFF;}
	.st2{fill:#D8222E;stroke:#FFFFFF;}
	.st3{fill:#0068C2;stroke:#FFFFFF;}
	.st4{fill:#003869;stroke:#FFFFFF;}
	.st5{fill:#034D8E;stroke:#FFFFFF;}
	.st6{fill:#FFFFFF;}
	.st7{fill:#D8222E;}
	.st8{fill:#FF3643;}
</style>
<rect x="156.5" y="2.5" class="st0" width="288" height="26"/>
<path class="st0" d="M354,28.5V2h252.1L650,29L354,28.5z"/>
<path class="st1" d="M184,29L156,2v27H184z"/>
<rect x="420.5" y="29.5" class="st2" width="229" height="173"/>
<path class="st3" d="M38,65L2,29h450.5L495,65H38z"/>
<path class="st4" d="M38,65L2,29v162l36,39V65z"/>
<rect x="38.5" y="65.5" class="st5" width="457" height="164"/>
<g>
	<path class="st6" d="M109.9,195.3c-7,0-13.4-1.1-19.3-3.3c-5.8-2.3-10.9-5.5-15.2-9.6c-4.4-4.2-7.7-9.1-10.1-14.7
		c-2.4-5.6-3.6-11.8-3.6-18.4c0-6.7,1.2-12.8,3.6-18.4c2.4-5.6,5.8-10.5,10.1-14.6c4.4-4.2,9.6-7.4,15.5-9.6
		c5.9-2.3,12.3-3.5,19.3-3.5c7.6,0,14.4,1.2,20.5,3.7c6.1,2.5,11.3,6.1,15.5,10.9L135.6,128c-3.5-3.5-7.3-6.1-11.4-7.7
		c-4-1.7-8.4-2.6-13.3-2.6c-4.7,0-9,0.8-13.1,2.3c-4,1.5-7.5,3.7-10.4,6.5s-5.2,6.1-6.8,10c-1.5,3.8-2.3,8.1-2.3,12.7
		c0,4.5,0.8,8.7,2.3,12.5c1.6,3.8,3.9,7.2,6.8,10.1c2.9,2.8,6.3,5,10.2,6.5c3.9,1.5,8.3,2.3,13.1,2.3c4.4,0,8.7-0.7,12.8-2
		c4.2-1.5,8.1-3.8,11.9-7.2l9.5,12.4c-4.7,3.8-10.2,6.6-16.4,8.6C122.4,194.3,116.2,195.3,109.9,195.3z M129.2,181.7v-33.5H145v35.7
		L129.2,181.7z M208.9,195.3c-7,0-13.4-1.2-19.3-3.5s-11-5.5-15.4-9.6c-4.4-4.2-7.7-9-10.1-14.6c-2.4-5.6-3.6-11.8-3.6-18.4
		c0-6.7,1.2-12.8,3.6-18.3c2.4-5.6,5.8-10.5,10.1-14.6c4.4-4.2,9.5-7.4,15.4-9.7c5.9-2.3,12.3-3.5,19.2-3.5c7,0,13.4,1.2,19.2,3.5
		c5.9,2.3,11,5.5,15.4,9.7c4.4,4.1,7.7,9,10.1,14.6c2.4,5.5,3.6,11.6,3.6,18.3c0,6.7-1.2,12.8-3.6,18.4c-2.4,5.6-5.8,10.5-10.1,14.6
		c-4.4,4.1-9.5,7.3-15.4,9.6C222.2,194.1,215.8,195.3,208.9,195.3z M208.8,180.7c4.5,0,8.7-0.8,12.5-2.3c3.8-1.5,7.2-3.7,10-6.5
		c2.8-2.9,5-6.2,6.5-10c1.6-3.8,2.4-8.1,2.4-12.7s-0.8-8.8-2.4-12.5c-1.5-3.8-3.7-7.2-6.5-10c-2.8-2.9-6.1-5.1-10-6.7
		c-3.8-1.5-8-2.3-12.5-2.3s-8.7,0.8-12.5,2.3c-3.8,1.5-7.1,3.8-10,6.7c-2.8,2.8-5,6.1-6.7,10c-1.5,3.8-2.3,7.9-2.3,12.5
		c0,4.5,0.8,8.7,2.3,12.5c1.6,3.8,3.8,7.2,6.7,10.1c2.8,2.8,6.1,5,10,6.5C200.1,179.9,204.2,180.7,208.8,180.7z M316.6,195.3
		c-7,0-13.4-1.2-19.3-3.5s-11-5.5-15.4-9.6c-4.4-4.2-7.7-9-10.1-14.6c-2.4-5.6-3.6-11.8-3.6-18.4c0-6.7,1.2-12.8,3.6-18.3
		c2.4-5.6,5.8-10.5,10.1-14.6c4.4-4.2,9.5-7.4,15.4-9.7c5.9-2.3,12.3-3.5,19.2-3.5c7,0,13.4,1.2,19.2,3.5c5.9,2.3,11,5.5,15.4,9.7
		c4.4,4.1,7.7,9,10.1,14.6c2.4,5.5,3.6,11.6,3.6,18.3c0,6.7-1.2,12.8-3.6,18.4s-5.8,10.5-10.1,14.6c-4.4,4.1-9.5,7.3-15.4,9.6
		C329.9,194.1,323.6,195.3,316.6,195.3z M316.5,180.7c4.5,0,8.7-0.8,12.5-2.3s7.2-3.7,10-6.5c2.8-2.9,5-6.2,6.5-10
		c1.6-3.8,2.4-8.1,2.4-12.7s-0.8-8.8-2.4-12.5c-1.5-3.8-3.7-7.2-6.5-10c-2.8-2.9-6.1-5.1-10-6.7c-3.8-1.5-8-2.3-12.5-2.3
		s-8.7,0.8-12.5,2.3c-3.8,1.5-7.1,3.8-10,6.7c-2.8,2.8-5,6.1-6.7,10c-1.5,3.8-2.3,7.9-2.3,12.5c0,4.5,0.8,8.7,2.3,12.5
		c1.6,3.8,3.8,7.2,6.7,10.1c2.8,2.8,6.1,5,10,6.5S312,180.7,316.5,180.7z M382.4,194v-89.6h39.2c9.7,0,18.3,1.9,25.6,5.6
		c7.3,3.8,13.1,9,17.2,15.6c4.1,6.7,6.1,14.5,6.1,23.6c0,9-2,16.8-6.1,23.6c-4.1,6.7-9.8,11.9-17.2,15.6c-7.3,3.8-15.9,5.6-25.6,5.6
		H382.4z M399,179.9h21.8c6.7,0,12.5-1.3,17.4-3.8c4.9-2.6,8.7-6.1,11.4-10.8c2.7-4.6,4.1-10,4.1-16.1c0-6.2-1.4-11.6-4.1-16.1
		c-2.6-4.6-6.4-8.2-11.4-10.8c-4.9-2.6-10.7-3.8-17.4-3.8H399V179.9z"/>
</g>
<g>
	<path class="st6" d="M514,162V72.4h16.6v75.5h46.8V162H514z"/>
</g>
<g>
	<path class="st6" d="M579.4,109.6h44.5v13.7h-44.5V109.6z M580.7,148h50.6v14H564V72.4h65.4v14h-48.8V148z"/>
</g>
<rect x="562.7" y="70.2" class="st7" width="19.3" height="93.2"/>
<rect x="352" y="3" class="st8" width="7" height="25"/>
<rect x="605.2" y="69.4" class="st7" width="29.6" height="20.4"/>
</svg>
